X:160
T:Stan Chapman's
M:6/8
L:1/8
R:jig
C:Jerry Holland
D:Solas: Solas
Z:NJI
N:Set is The White Petticoat - ~ - The Miller's Maggot
K:A
E2E EFA|B2B Bce|fea fec|ecA BAF|
E2E EFA|B2B Bce|fea fec|1 ecA AGF:|2 ecA A2f|
|:e2e ecA|f2f fga|fec BAB|cAF F2f|
e2e ecA|f2f fga|fec BAB|1 cAA A2f:|2 cAA AGF||
